tkexpress.svg

<svg viewBox="0 0 24 24" xmlns="http://www.w3.org/2000/svg"><path d="M0.690924 18.6512L6.03377 8.11319L3.06856 8.11319L2.53486 8.1154L0 5.33547L9.90988 5.33547L3.15345 18.6512L0.690924 18.6512L0.690924 18.6512ZM10.6791 5.33547L18.4733 5.33547L15.2911 8.11245L14.9707 8.11319L13.4745 8.11319L8.13016 18.6512L3.92557 18.6512L10.6791 5.33547L10.6791 5.33547ZM19.777 5.33547L24 5.33547L16.1703 12.1192L11.948 12.1192L19.777 5.33547L19.777 5.33547ZM21.1603 18.6645L16.171 12.1185L11.948 12.1185L16.9357 18.6645L21.1603 18.6645L21.1603 18.6645Z" fill="#2699ca"/></svg>

<svg viewBox="0 0 24 24" xmlns="http://www.w3.org/2000/svg"><path d="M.69 18.651 6.035 8.113H3.069l-.534.002L0 5.335h9.91L3.153 18.651H.691Zm9.99-13.316h7.793l-3.182 2.777-.32.001h-1.496L8.13 18.651H3.926l6.753-13.316Zm9.097 0H24l-7.83 6.784h-4.222l7.829-6.784Zm1.383 13.33-4.989-6.546h-4.223l4.988 6.546h4.224Z" fill="#2699ca"/></svg>
